packages/assets/static/images/icons/first-aid-kit.svg

<svg width="24" height="24" viewBox="0 0 24 24" xmlns="http://www.w3.org/2000/svg">
<path d="M20.25 5.81299H16.875V5.06299C16.875 4.3668 16.5984 3.69912 16.1062 3.20683C15.6139 2.71455 14.9462 2.43799 14.25 2.43799H9.75C9.05381 2.43799 8.38613 2.71455 7.89384 3.20683C7.40156 3.69912 7.125 4.3668 7.125 5.06299V5.81299H3.75C3.25272 5.81299 2.77581 6.01053 2.42417 6.36216C2.07254 6.71379 1.875 7.19071 1.875 7.68799V19.688C1.875 20.1853 2.07254 20.6622 2.42417 21.0138C2.77581 21.3654 3.25272 21.563 3.75 21.563H20.25C20.7473 21.563 21.2242 21.3654 21.5758 21.0138C21.9275 20.6622 22.125 20.1853 22.125 19.688V7.68799C22.125 7.19071 21.9275 6.71379 21.5758 6.36216C21.2242 6.01053 20.7473 5.81299 20.25 5.81299ZM9.375 5.06299C9.375 4.96353 9.41451 4.86815 9.48483 4.79782C9.55516 4.7275 9.65054 4.68799 9.75 4.68799H14.25C14.3495 4.68799 14.4448 4.7275 14.5152 4.79782C14.5855 4.86815 14.625 4.96353 14.625 5.06299V5.81299H9.375V5.06299ZM19.875 19.313H4.125V8.06299H19.875V19.313ZM15.375 13.688C15.375 13.9864 15.2565 14.2725 15.0455 14.4835C14.8345 14.6945 14.5484 14.813 14.25 14.813H13.125V15.938C13.125 16.2364 13.0065 16.5225 12.7955 16.7335C12.5845 16.9445 12.2984 17.063 12 17.063C11.7016 17.063 11.4155 16.9445 11.2045 16.7335C10.9935 16.5225 10.875 16.2364 10.875 15.938V14.813H9.75C9.45163 14.813 9.16548 14.6945 8.9545 14.4835C8.74353 14.2725 8.625 13.9864 8.625 13.688C8.625 13.3896 8.74353 13.1035 8.9545 12.8925C9.16548 12.6815 9.45163 12.563 9.75 12.563H10.875V11.438C10.875 11.1396 10.9935 10.8535 11.2045 10.6425C11.4155 10.4315 11.7016 10.313 12 10.313C12.2984 10.313 12.5845 10.4315 12.7955 10.6425C13.0065 10.8535 13.125 11.1396 13.125 11.438V12.563H14.25C14.5484 12.563 14.8345 12.6815 15.0455 12.8925C15.2565 13.1035 15.375 13.3896 15.375 13.688Z"/>
</svg>

<svg viewBox="0 0 24 24" xmlns="http://www.w3.org/2000/svg" aria-hidden="true" fill="currentColor" height="24px" width="24px"><path d="M20.25 5.813h-3.375v-.75a2.625 2.625 0 0 0-2.625-2.625h-4.5a2.625 2.625 0 0 0-2.625 2.625v.75H3.75a1.875 1.875 0 0 0-1.875 1.875v12a1.875 1.875 0 0 0 1.875 1.875h16.5a1.875 1.875 0 0 0 1.875-1.875v-12a1.875 1.875 0 0 0-1.875-1.875m-10.875-.75a.375.375 0 0 1 .375-.375h4.5a.375.375 0 0 1 .375.375v.75h-5.25zm10.5 14.25H4.125V8.063h15.75zm-4.5-5.625a1.125 1.125 0 0 1-1.125 1.125h-1.125v1.125a1.125 1.125 0 1 1-2.25 0v-1.125H9.75a1.125 1.125 0 1 1 0-2.25h1.125v-1.125a1.125 1.125 0 1 1 2.25 0v1.125h1.125a1.125 1.125 0 0 1 1.125 1.125"/></svg>
